build/system/NetworkServicesOutline.svg

<svg xmlns="http://www.w3.org/2000/svg" fill="none" viewBox="0 0 24 24" focusable="false"><path d="M0 0H24V24H0z"/><path fill="#74767B" fill-rule="evenodd" d="M16.8519 7.61303C16.5052 7.70594 16.1488 7.50016 16.0559 7.15341L15.6982 5.81862L13.796 9.11542C14.5099 9.64827 15.0194 10.4398 15.1857 11.3512L18.9809 11.3502L18.0043 10.3736C17.7505 10.1197 17.7505 9.70817 18.0043 9.45433C18.2581 9.20049 18.6697 9.20049 18.9235 9.45433L21.0116 11.5424C21.2655 11.7963 21.2655 12.2078 21.0116 12.4617L18.927 14.5463C18.6731 14.8002 18.2616 14.8002 18.0077 14.5463C17.7539 14.2925 17.7539 13.8809 18.0077 13.6271L18.9847 12.6502L15.1857 12.6512C15.0195 13.5623 14.5101 14.3538 13.7965 14.8866L15.6982 18.1825L16.0559 16.8478C16.1488 16.501 16.5052 16.2952 16.8519 16.3881C17.1987 16.481 17.4045 16.8375 17.3116 17.1842L16.5485 20.0319C16.4556 20.3787 16.0992 20.5845 15.7524 20.4916L12.9 19.7273C12.5533 19.6343 12.3475 19.2779 12.4404 18.9312C12.5333 18.5844 12.8898 18.3786 13.2365 18.4716L14.5703 18.8289L12.6287 15.4639C12.3162 15.5525 11.9864 15.5999 11.6456 15.5999C9.87955 15.5999 8.41064 14.3277 8.10523 12.6498L6.0996 12.6498C5.82826 13.4572 5.06526 14.0388 4.16641 14.0388C3.04032 14.0388 2.12744 13.126 2.12744 11.9999C2.12744 10.8738 3.04032 9.96091 4.16641 9.96091C5.06522 9.96091 5.82819 10.5425 6.09957 11.3498L8.10574 11.3498C8.41226 9.6733 9.88052 8.40256 11.6456 8.40256C11.9862 8.40256 12.3158 8.44988 12.6281 8.53831L14.5703 5.17223L13.2365 5.52961C12.8898 5.62253 12.5333 5.41675 12.4404 5.06999C12.3475 4.72324 12.5533 4.36682 12.9 4.27391L15.7524 3.50961C16.0992 3.4167 16.4556 3.62248 16.5485 3.96923L17.3116 6.81695C17.4045 7.1637 17.1987 7.52012 16.8519 7.61303ZM11.6456 9.70256C10.3761 9.70256 9.34693 10.7317 9.34693 12.0012C9.34693 13.2707 10.3761 14.2999 11.6456 14.2999C12.9151 14.2999 13.9442 13.2707 13.9442 12.0012C13.9442 10.7317 12.9151 9.70256 11.6456 9.70256ZM4.16641 11.2609C4.57453 11.2609 4.90538 11.5918 4.90538 11.9999C4.90538 12.408 4.57453 12.7388 4.16641 12.7388C3.75829 12.7388 3.42744 12.408 3.42744 11.9999C3.42744 11.5918 3.75829 11.2609 4.16641 11.2609Z"/></svg>

<svg xmlns="http://www.w3.org/2000/svg" fill="none" viewBox="0 0 24 24" focusable="false"><path fill="#74767B" fill-rule="evenodd" d="M16.85 7.61a.65.65 0 0 1-.8-.46l-.36-1.34-1.9 3.3a3.6 3.6 0 0 1 1.39 2.24h3.8l-.98-.98a.66.66 0 0 1 0-.92c.25-.25.66-.25.92 0l2.09 2.09c.25.25.25.66 0 .92l-2.09 2.08a.64.64 0 0 1-.92 0 .66.66 0 0 1 0-.92l.98-.97h-3.8c-.17.91-.67 1.7-1.39 2.23l1.9 3.3.36-1.34a.66.66 0 0 1 .8-.46c.34.1.55.45.46.8l-.77 2.85c-.09.34-.45.55-.79.46l-2.86-.77a.64.64 0 0 1-.45-.79c.09-.35.44-.56.79-.46l1.34.35-1.95-3.36c-.31.09-.64.13-.98.13-1.77 0-3.23-1.27-3.54-2.95H6.09a2.03 2.03 0 0 1-1.93 1.39c-1.12 0-2.04-.91-2.04-2.04a2.04 2.04 0 0 1 3.97-.65H8.1a3.61 3.61 0 0 1 3.54-2.94c.34 0 .67.04.98.13l1.95-3.36-1.34.35c-.35.1-.7-.11-.79-.45-.1-.35.11-.71.45-.8l2.86-.77c.34-.09.7.12.79.46l.77 2.85a.66.66 0 0 1-.46.8M11.64 9.7a2.3 2.3 0 0 0-2.3 2.3c0 1.27 1.03 2.29 2.3 2.29s2.3-1.02 2.3-2.29a2.3 2.3 0 0 0-2.3-2.3m-7.48 1.56c.41 0 .74.33.74.73 0 .41-.33.74-.74.74s-.74-.33-.74-.74c0-.4.33-.73.74-.73"/></svg>
